X:1
T:Winterreise, D.911
T:Auf dem Flusse
T:Winterreise, D.911
T:7. Auf dem Flusse
T:Franz Schubert
T:Wilhelm Müller
T:OpenScore (CC0)
T:OpenScore (CC0)
T:OpenScore (CC0)
T:OpenScore (CC0)
T:OpenScore (CC0)
C:Franz Schubert
Z:Wilhelm Müller
Z:OpenScore (CC0)
%%score ( 1 2 ) { 3 | 4 }
L:1/8
Q:1/4=43
M:2/4
K:G
V:1 treble nm="Singstimme\nVoice"
V:2 treble 
V:3 treble nm="Pianoforte"
V:4 bass 
V:1
"^Langsam" z4 | z4 | z4 | z4 | E E/ F/ G3/2 A/ | B B z B, | E3/2 F/ G3/2 A/ | %7
w: ||||Der du so lu- stig|rausch- test, du|hel- ler, wil- der|
 B2"^(sehr leise)" z B | ^A3/2 A/ A A | ^A F z A |{B^c} B/^A/ B/^d/ A [^A,A] | ^D2 z2 | z2 z B, | %13
w: Fluss, wie|still bist du ge-|wor- den, gibst|kei- * nen * Schei- de-|gruss!|Mit|
 E3/2 F/ G3/2 A/ | B/>c/ B z B, | E3/2 F/ G3/2 A/ | B2 z B | ^A3/2 A/ ^d3/2 A/ | ^A A z A | %19
w: har- ter, star- rer|Rin- * de hast|du dich ü- ber-|deckt, liegst|kalt und un- be-|weg- lich im|
{B^c} B/^A/ B/^d/ A [^A,A] | ^D2 z2 | z2 z F ||[K:E] G3/2 G/ G3/2 E/ | G F z G | %24
w: San- * de * aus- ge-|streckt.|In|dei- ne Dec- ke|grab' ich mit|
 A3/2 A/ (PA/G/) (A/B/) |{^^F} G2 z A | B3/2 B/ B c | e>=d c z/ c/ | cF/ F/ =G3/2A/4G/4 | F2 z F | %30
w: ei- nem spit- * zen *|Stein den|Na- men mei- ner|Lieb- * sten und|Stund' * und Tag hin- *|ein: Den|
 G3/2 G/ G3/2 E/ | G F z G | A3/2 A/ PA/G/ A/B/ |{^^F} G2 z A | B3/2 B/ B c | e>=d c e | %36
w: Tag des er- sten|Gru- sses, den|Tag, an dem _ ich _|ging; um|Nam' und Zah- len|win- * det sich|
 F/G/ A/B/ c3/2 E/ | B2 z2 | z4 | z4 ||[K:G] z2 z3/2 B/ | B2 z2 | z3/2 B/ B3/2 e/ | e ^d z2 | %44
w: ein * zer- * broch'- ner|Ring.|||Mein|Herz,|in die- sem|Ba- che|
 z2 z ^d | (^d/f/) (f/^e/) d^^c | ^d2 z3/2 d/ | B3/2 ^c/ ^d3/2 e/ | ^A ^d z d | B3/2 ^c/ ^d3/2 e/ | %50
w: er-|kennst * du _ nun dein|Bild? Ob's|un- ter sei- ner|Rin- de wohl|auch so rei- ssend|
 ^A^d z2 | z2 ^d3/2 d/ | e/=g/ g/f/ e ^d | e2 z3/2 B/ | B2 z2 | z3/2 =d/ d3/2 e/ | e d z2 | %57
w: schwillt, *|ob's wohl|auch * so * rei- ssend|schwillt? Mein|Herz,|in die- sem|Ba- che|
 z2 z ^c | (d/^c/) (d/f/) cc | ^c2 z2 | z2 z3/2 B/ | B3/2 B/ B3/2 e/ |{e} ^d d z3/2 =d/ | %63
w: er-|kennst * du _ nun dein|Bild?|Ob's|un- ter sei- ner|Rin- de wohl|
 d3/2 d/ d3/2 g/ | gf z2 | z2 ^d3/2 d/ | e/g/ g/f/ e ^d | f2 ^d3/2 d/ | (e/g/) (f/a/) e ^d | %69
w: auch so rei- ssend|schwillt, *|ob's wohl|auch * so * rei- ssend|schwillt, ob's wohl|auch * so * rei- ssend|
 [Ee]2 z2 | z4 | z4 | z4 | z4 |] %74
w: schwillt?|||||
V:2
 x4 | x4 | x4 | x4 | x4 | x4 | x4 | x4 | x4 | x4 | x4 | x4 | x4 | x4 | x4 | x4 | x4 | x4 | x4 | %19
 x4 | x4 | x4 ||[K:E] x4 | x4 | x4 | x4 | x4 | x4 | x4 | x4 | x4 | x4 | x4 | x4 | x4 | x4 | x4 | %37
 x4 | x4 | x4 ||[K:G] x4 | x4 | x4 | x4 | x4 | x4 | x4 | x4 | x4 | x4 | x4 | x4 | x4 | x4 | x4 | %55
 x4 | x4 | x4 | x4 | x4 | x4 | x4 | x4 | x4 | x4 | x4 | x4 | x4 | (e/B/) (A/e/) G F | x4 | x4 | %71
 x4 | x4 | x4 |] %74
V:3
!pp! z"^staccato" [B,EG] z [B,EG] | z [CEG] z [B,EG] | z [CEF] z [B,^DF] | z [B,EG] z [B,^DF] | %4
 z [B,EG] z [B,EG] | z [B,EF] z [B,^DF] | z [B,EG] z [B,EG] | z [B,EF] z [B,^DF] | %8
 z [^A,^DF] z [A,DF] | z [^A,^DF] z [A,DF] | z [B,^DF] [^A,DF][^G,A,^^C^E] | z [F,^A,^D] z [A,DF] | %12
!<(! (.[B,^DF]/.[=A,DF]/.[=G,EG]/.[A,EG]/!<)!!>(! .[B,EF]/.[B,EF]/.[B,DF]/.[B,DF]/)!>)! | %13
!pp! z [B,EG] z [B,EG] | z [B,EF] z [B,^DF] | z [B,EG] z [B,EG] | z [B,EF] z [B,^DF] | %17
!ppp! z [^A,^DF] z [A,DF] | z [^A,^DF] z [A,DF] | z [B,^DF] [^A,DF][^G,A,^^C^E] | %20
 z [F,^A,^D] z [A,DF] | %21
!<(! (.[B,^DF]/.[=A,DF]/.[^G,E^G]/.[A,EG]/!<)!!>(! .[B,EF]/.[B,EF]/.[B,DF]/.[B,DF]/)!>)! || %22
[K:E] z !>![B,EG] (.[B,EG]/.[B,EG]/.[CEG]/.[CEG]/) | %23
 z !>![CEF] (.[B,DF]/.[B,DF]/.[B,^EG]/.[B,EG]/) | z !>![CFA] (.[=CFA]/.[CFA]/.[B,DA]/.[B,DA]/) | %25
 z !>![B,FG] (.[B,EG]/.[B,EG]/.[CEA]/.[CEA]/) | %26
 z !>![B,EB]!<(! (.[=DFB]/.[DFB]/.[CGc]/.[CGc]/)!<)! |!>(! [=DFA]/[DFA]/[DEB]/[DEB]/!>)! z [CEc] | %28
 z [CEF]/[CEF]/ z [CE=G]/[CEG]/ | z/ [CEF]/[B,^DF]/[^A,CF]/ [B,DF] z | %30
 z [B,EG] (3[B,EG]/[B,EG]/[B,EG]/ (3[CEG]/[CEG]/[CEG]/ | %31
 z [CEF] (3[B,DF]/[B,DF]/[B,DF]/ (3[B,^EG]/[B,EG]/[B,EG]/ | %32
 z [CFA] (3[=CFA]/[CFA]/[CFA]/ (3[B,DA]/[B,DA]/[B,DA]/ | %33
 z [B,FG] (3[B,EG]/[B,EG]/[B,EG]/ (3[CEA]/[CEA]/[CEA]/ | %34
 z [B,EB]!<(! (3[=DFB]/[DFB]/[DFB]/ (3[CGc]/[CGc]/[CGc]/!<)! | %35
!>(! (3[=DFA]/[DFA]/[DFA]/ (3[DEB]/[DEB]/[DEB]/!>)! z [CEc] | %36
 z (3[=CEF]/[CEF]/[CEF]/ z (3[^CE=G]/[CEG]/[CEG]/ | %37
 z (3[DF]/[DF]/"_dim."[DF]/ z (3[B,DF]/[B,DF]/[B,DF]/ | %38
 z (3[B,E=G]/[B,EG]/[B,EG]/ z (3[B,DA]/[B,DA]/[B,DA]/ | z4 ||[K:G]!p! z [B,EG] z [B,EG] | %41
 z [EF] z [B,^DF] | z [B,EG] z [B,EG] | z [^DF] z!ppp! [B,DF] | z [^A,^DF] z [A,DF] | %45
 z!<(! [B,^DF]!<)!!>(! [^A,DF][A,^E^G]!>)! | z"_cresc." [^A,^DF] z [A,D^^F^A] | %47
 z [^D^GB]/4B,/4[DGB]/4B,/4 z [DGB]/4B,/4[DGB]/4B,/4 | %48
 z [^D^G^A]/4^A,/4[DGA]/4A,/4 z [D^^FA]/4A,/4[DFA]/4A,/4 | %49
 z [^D^GB]/4B,/4[DGB]/4B,/4 z [DGB]/4B,/4[DGB]/4B,/4 | %50
 z [^D^G^A]/4^A,/4[DGA]/4A,/4 z [D^^FA]/4A,/4[DFA]/4A,/4 | %51
 z!<(! [^D^F=AB]/4B,/4[DFAB]/4B,/4 z [DF=c]/4=C/4[DFc]/4C/4!<)! | %52
!>(! z/ [E=GB]/4B,/4 z/!>)! [EFA]/4A,/4 z/ [EGB]/4B,/4 z/ [FAB]/4B,/4 |!pp! z .[B,EG] z .[B,EG] | %54
 z .[B,EF] z .[B,^DF] | z .[=DGB] z .[DGB] | z .[DGA] z .[DFA] |!ppp! z .[^CFA] z .[CFA] | %58
 z .[DFA] .[^CFA].[B,C^E^G] | z [A,^CF]"_cresc." z [CFA] |!<(! z [B,^DFA] z [B,DFA]!<)! | %61
!f! z [EG]/4B,/4[EG]/4B,/4 z [EG]/4B,/4[EG]/4B,/4 | %62
 z [^DF]/4B,/4[DF]/4B,/4 z [DF]/4B,/4[DF]/4B,/4 | z [G_B]/4D/4[GB]/4D/4 z [GB]/4D/4[GB]/4D/4 | %64
 z [FA]/4D/4[FA]/4D/4 z [DFA]/4A,/4[DFA]/4A,/4 | %65
 z [^DF=B]/4B,/4[DFB]/4B,/4 z [DFc]/4C/4[DFc]/4C/4 | %66
!<(! z/ [EGB]/4B,/4 z/ [EFA]/4A,/4!<)!!>(! z/ [EGB]/4B,/4 z/ [FAB]/4B,/4!>)! | %67
 z [^DFA]/4A,/4[DFA]/4A,/4 z [DFc]/4C/4[DFc]/4C/4 | %68
!<(! z/ [EGB]/4B,/4 z/ [EFA]/4A,/4!<)!!>(! z/ [EGB]/4B,/4 z/ [^DFAB]/4B,/4!>)! | %69
[K:bass] z E/4E,/4E/4E,/4 z E/4E,/4E/4E,/4 |"_dim." z E/4E,/4E/4E,/4 z E/4E,/4E/4E,/4 | %71
[K:treble]!pp! z !wedge![B,EG] z !wedge![B,EG] | z !wedge![B,EG] z !wedge![B,EG] | %73
 !arpeggio!!fermata![B,EGB]4 |] %74
V:4
 E, z D, z | C, z G,, z | A,, z B,, z | E, z B,, z | E, z G, z | B, z B,, z | E, z G, z | %7
 B, z B,, z |!ppp! ^A,, z A,, z | ^A,, z A,, z | ^G,, z ^A,,A,, | ^D, z D, z | %12
 (.B,,/.B,,/.B,,/.B,,/ .B,,/.B,,/.B,,/.B,,/) | E, z G, z | B, z B,, z | E, z G, z | B, z B,, z | %17
 ^A,, z A,, z | ^A,, z A,, z | ^G,, z ^A,,A,, | ^D,, z ^D, z | %21
 (.B,,/.B,,/.B,,/.B,,/ .B,,/.B,,/.B,,/.B,,/) ||[K:E] E, z (.G,,/.G,,/.^A,,/.A,,/) | %23
 B,, z (.B,,/.B,,/.=A,,/.G,,/) | F,, z (.D,/.D,/.B,,/.B,,/) | E, z (.E,/.E,/.C,/.A,,/) | %26
 G,,G, (.F,/.F,/.^E,/.^E,/) | F,/F,/G,/G,/ A, z | A,,/A,,/ z ^A,,/A,,/ z | B,,2- B,, z | %30
 E, z (3G,,/G,,/G,,/ (3^A,,/A,,/A,,/ | B,, z (3B,,/B,,/B,,/ (3A,,/A,,/G,,/ | %32
 F,, z (3D,/D,/D,/ (3B,,/B,,/B,,/ | E, z (3E,/E,/E,/ (3C,/C,/A,,/ | %34
 G,,G, (3F,/F,/F,/ (3^E,/E,/E,/ | (3F,/F,/F,/ (3G,/G,/G,/ A, z | %36
 (3A,,/A,,/A,,/ z (3^A,,/A,,/A,,/ z | (3B,,/B,,/B,,/ z (3[A,,B,,]/[A,,B,,]/[A,,B,,]/ z | %38
 (3[=G,,B,,]/[G,,B,,]/[G,,B,,]/ z (3[F,,B,,]/[F,,B,,]/[F,,B,,]/ z | z2 z!pp! B,, || %40
[K:G] (E,>F,G,>A,) | (B,>CB,) .B,, | (E,>F,G,>A,) | (B,>CB,) (B,, | (^A,,2) ^A,,,2) | %45
 (^G,,,2 !wedge!^A,,,)!wedge!A,,, | (^D,,(D,,/4)F,,/4^A,,/4^D,/4) (!>!E,D,/) z/ | %47
 (^G,,>^A,,B,,>^C,) | (^D,>E,.D,) .^D,, | (^G,,>^A,,B,,>^C,) | (^D,>E,D,^C,) | %51
 B,,2 (T=A,,3/2=G,,/4)A,,/4 | G,,[=C,,=C,][B,,,B,,][B,,,B,,] | (E,,>F,,G,,>A,,) | (B,,>C,B,,>A,,) | %55
 (G,,>A,,B,,>C,) | (D,>E, D,2) | (^C,2 ^C,,2) | (B,,,2 ^C,,)C,, | %59
 (F,,,(F,,,/4)A,,,/4^C,,/4F,,/4) (!>!A,,F,,/) z/ | (B,,,(B,,,/4)^D,,/4F,,/4A,,/4) (!>!=C,B,,/) z/ | %61
 (E,,>F,,G,,>A,,) | (B,,>C,B,,>A,,) | (G,,>A,,_B,,>C,) | (D,>_E,D,C,) | =B,,2 (TA,,3/2G,,/4A,,/4) | %66
 G,,[C,,C,] [B,,,B,,][B,,,B,,] | ([C,,C,]2 [B,,,B,,])[A,,,A,,] | %68
 [F,,,G,,][C,,C,] [B,,,B,,][B,,,B,,] | (E,,>F,,G,,>F,,) | (E,,>F,,G,,>F,,) | %71
 !wedge!E,, z !wedge!G,, z | !wedge!B,, z !wedge!E, z | !arpeggio!!fermata!E,4 |] %74

